X:1
T:Be Kind to Your Nainsel', John
M:4/4
L:1/8
K:A
 E3/2 E/2| A2 A3/2 A/2 B2 G2| A4 B2 z c| d2 dd c2 A2| B4 c3 d| e2 cc dB BB|\
c-c AA GB EE| A2 A3/2 A/2 B2 G2| A6||
